X: 30971
T: Oyster Wife's Rant, The
R: reel
M: 4/4
K: Adorian
e2 ed eAAB|dedB GABd|e2 ed efge|dBgB A/A/A A:|
e^def g2 fe|dedB dedB|e^def gage|dBgB A/A/A A:|

